svg/work-doodle-toms.svg

<svg xmlns="http://www.w3.org/2000/svg" width="303" height="400" fill="none"><path stroke="#15CE79" stroke-linecap="round" stroke-width="3" d="M130 106.653c0 6.294-1.193 10.179-7 13-3.895 1.891-7.303 1.619-10.889-1-2.677-1.957-1.343-8.072-2.222-11-1.18-3.934 12.181-4.5 14.583-4.5 3.924 0 3.696 2.628 3.5 6.25-.016.31-1.367 5.951-1.861 4.416-.518-1.613-.111-3.886-.111-5.555 0-1.889-.035-3.874-.75-.778a102.581 102.581 0 0 0-1.472 7.611c-.119.784-.498 4.592-.889 1.722-.462-3.388-.389-6.811-.389-10.222 0-1.148-.152-3.8-.75-.944-.741 3.539-1.25 14.394-1.25 10.777 0-2.705-.288-5.275-.722-7.944-.016-.101-.166-2.654-.611-.945-.85 3.263-1.04 6.703-1.167 10.056-.145 3.842-2.258-14.472-3.722-10.917-1.057 2.568-.052 6.849.444 9.473.551 2.909-.28-2.805-.444-3.334-.646-2.086-1.617-5.371-3.278-6.944-.625-.592-.216 4.228-.194 4.361.414 2.488 1.368 4.566 2.389 6.833.825 1.834-.494-2.491-.695-2.916-.528-1.118-2.331-3.291-2.389-4.5-.026-.551 5.261-1.468 6.139-1.834 2.452-1.021 10.184-2.611 7.528-2.611-3.478 0-7.05.389-10.556.445-.348.005-4.36.862-2.777.166 5.358-2.358 9.977-2.666 15.75-2.666 1.259 0 2.547-.074 3.805 0 .968.056.5 3.502.5 4.194 0 2.894.459 6.792-1.805 9.056-1.68 1.68-5.167 2.25-7.417 2.25-1.539 0-6.217.449-7.417-.75-.105-.106 3.051-.25 3.417-.25.562 0 4.799-.265 2.5.111-1.864.304-3.778 1.887-3.778-.111"/><path stroke="#15CE79" stroke-linecap="round" stroke-width="3" d="M129 105.152c6.521-12.11 18.441-20.005 28.611-28.722 4.531-3.883 9.06-7.759 13.667-11.528 3.89-3.183 17.404-10.038 13.222-7.25m-68.5 57c-2.256 8.773-11.196 33.599-20 38"/></svg>

<svg width="303" height="400" viewBox="0 0 303 400" fill="none" xmlns="http://www.w3.org/2000/svg">
<path d="M130 106.653C130 112.947 128.807 116.832 123 119.653C119.105 121.544 115.697 121.272 112.111 118.653C109.434 116.696 110.768 110.581 109.889 107.653C108.709 103.719 122.07 103.153 124.472 103.153C128.396 103.153 128.168 105.781 127.972 109.403C127.956 109.713 126.605 115.354 126.111 113.819C125.593 112.206 126 109.933 126 108.264C126 106.375 125.965 104.39 125.25 107.486C124.671 109.995 124.165 112.552 123.778 115.097C123.659 115.881 123.28 119.689 122.889 116.819C122.427 113.431 122.5 110.008 122.5 106.597C122.5 105.449 122.348 102.797 121.75 105.653C121.009 109.192 120.5 120.047 120.5 116.43C120.5 113.725 120.212 111.155 119.778 108.486C119.762 108.385 119.612 105.832 119.167 107.541C118.317 110.804 118.127 114.244 118 117.597C117.855 121.439 115.742 103.125 114.278 106.68C113.221 109.248 114.226 113.529 114.722 116.153C115.273 119.062 114.442 113.348 114.278 112.819C113.632 110.733 112.661 107.448 111 105.875C110.375 105.283 110.784 110.103 110.806 110.236C111.22 112.724 112.174 114.802 113.195 117.069C114.02 118.903 112.701 114.578 112.5 114.153C111.972 113.035 110.169 110.862 110.111 109.653C110.085 109.102 115.372 108.185 116.25 107.819C118.702 106.798 126.434 105.208 123.778 105.208C120.3 105.208 116.728 105.597 113.222 105.653C112.874 105.658 108.862 106.515 110.445 105.819C115.803 103.461 120.422 103.153 126.195 103.153C127.454 103.153 128.742 103.079 130 103.153C130.968 103.209 130.5 106.655 130.5 107.347C130.5 110.241 130.959 114.139 128.695 116.403C127.015 118.083 123.528 118.653 121.278 118.653C119.739 118.653 115.061 119.102 113.861 117.903C113.756 117.797 116.912 117.653 117.278 117.653C117.84 117.653 122.077 117.388 119.778 117.764C117.914 118.068 116 119.651 116 117.653" stroke="#15CE79" stroke-width="3" stroke-linecap="round"/>
<path d="M129 105.152C135.521 93.0418 147.441 85.1473 157.611 76.4302C162.142 72.5466 166.671 68.6714 171.278 64.9024C175.168 61.7195 188.682 54.8643 184.5 57.6524" stroke="#15CE79" stroke-width="3" stroke-linecap="round"/>
<path d="M116 114.652C113.744 123.425 104.804 148.251 96 152.652" stroke="#15CE79" stroke-width="3" stroke-linecap="round"/>
</svg>
